X:1     %Music
T:The Little Lowland Maid
B:Broadwood, L, 1908, English Traditional Songs and Carols, London, Boosey
N:Reprinted by EP Publishing Limited, Rowman & Littlefield, Totowa, New Jersey, 1974
S: Mr Baker, 1896
Z:Lucy Broadwood
F:http://www.folkinfo.org/songsM:6/8     %Meter
L:1/8     %
K:D
F |F2 E E2 D |E2 F G2 A |B2 A A2 G |A3-A z
w:It's of a pret-ty sail-or lad who ploughed the storm-y sea
       F |F2 E E2 D |E2 F G2 A |B2 A A2 G | A3- A z
w:He dressed him-self in tar-ry clothes, like one in pov-er-ty
        d |d2 c B2 A |(F2 A) d2 c |B2 A (AF)D | E3- E/ z/
w:His pock-ets being well li--ned, though of the sail--or trade,
          DE |F2 E G2 A |B2 A HA2 D |E2 F D2 D |D3- D z2 |]
w: For to try the heart of Mar-ry Ann, the lit-tle Low-land Maid.